X:1
T:Title
%%score 1 2 3
L:1/8
M:4/2
K:F
V:1 bass nm="Part_1"
V:2 bass nm="Part_2"
V:3 bass nm="Part_3"
V:1
 z16 | F,4 D,2 B,,2 C,4 C,2 C,2 | D,>E,D,>E, F,2 D,2 E,2 F,4 E,2 | F,8 z8 | %4
 z2 F,,G,, A,,2 B,,2 C,4 C,2 C,2 | E,2 F,2 G,4 G,2 D,2 G,4 | F,8 z2 E,F, G,2 A,2 | B,8 F,4 E,4 | %8
 D,8 C,8 | z8 G,4 E,2 C,2 | D,4 D,2 D,2 E,>F,E,>F, G,2 E,2 | ^F,2 G,4 F,2 G,2 D,E, =F,2 G,2 | %12
[M:6/2] E,8 D,4 F,4 E,8 |[M:4/2] D,2 B,,C, D,2 E,2 F,8 | E,2 C,D, E,2 F,2 G,4 A,3 F, | G,8 F,8 | %16
 C,4 D,2 E,2 F,4 F,2 G,2 | A,3 A, A,4 G,2 F,2 E,F,/E,/D,E, | %18
 C,D,/C,/B,,C, A,,B,,/A,,/G,,A,, F,,4 E,,2 E,,2 | G,,4 G,,2 C,2- C,2 B,,2 _E,3 D, | D,8 z8 | %21
 z8 z8 |[M:6/2] z8 z16 |[M:4/2] z16 | z16 | z8 z4 C,2 E,2 | G,2 G,2 D,E, F,2 A,4 G,4 | %27
 z4 G,2 F,2 E,>F,D,>E, C,>D,B,,>C, | A,,>B,,G,,>A,, F,,4 F,,2 F,2 F,2 D,2 | E,8 D,8 | %30
[M:3/2] G,6 F,2 E,4 | C,4 G,8 | E,4 F,4 G,4 | A,6 G,2 F,4 | D,2 E,2 F,4 C,4 | G,8 C,4 | z12 | z12 | %38
 z12 | z12 | z12 | z4 z4 C,4 | F,12 | D,12 | G,6 F,2 E,4 | D,8 D,4 | G,,12 | G,6 F,2 E,4 | %48
 F,6 E,2 D,4 | A,,6 G,,2 F,,4 | C,2 =B,,2 C,2 D,2 E,2 C,2 | D,8 D,4 | %52
[M:6/2] C,8 z2 C,2 F,4 D,4 D,2 G,2- |[M:4/2] G,2 E,3 E, A,4 F,3 F, B,2- | %54
 B,2 G,4 A,3 G, F,2 G,3 G, |[M:6/2] G,4 z4 z2 B,,3 A,, G,,2 D,3 C, B,,3 A,,/G,,/ | %56
[M:4/2] C,6 C,2 D,2 F,3 E, D,2 | E,4 F,8 E,4 | F,16 |] %59
V:2
 z16 | z16 | F,4 D,2 B,,2 C,4 C,2 C,2 | D,>E,D,>E, F,2 D,2 E,2 F,4 E,2 | F,8 z2 C,2 E,2 F,2 | %5
 G,4 G,,4 C,2 F,4 E,2 | F,2 F,,G,, A,,2 B,,2 C,8 | G,,8 D,4 C,4- | C,4 =B,,4 C,8 | z16 | z16 | %11
 z8 D,4 B,,2 G,,2 |[M:6/2] A,,4 A,,2 A,,2 =B,,>C,B,,>C, D,2 B,,2 ^C,2 D,4 C,2 | %13
[M:4/2] D,8 z2 F,,G,, A,,2 B,,2 | C,4 C,4 E,4 F,4- | F,4 E,4 F,8 | z16 | z16 | z16 | z16 | %20
 z4 A,4- A,3 G, G,2 F,E, | E,2 D,C, C,2 B,,2 A,,A,, A,,4 ^F,,2 | %22
[M:6/2] G,,8 C,,4 G,,A,, B,,2 D,4 A,,4 |[M:4/2] A,3 G, F,>G,E,>F, D,>E,C,>D, B,,>C,A,,>B,, | %24
 G,,4 G,,2 D,2 G,4 E,,4 | G,,8 C,,8 | G,,A,, B,,2 D,2 D,2 F,,G,, A,,2 C,2 C,2 | %27
 G,2 F,2 E,>F,D,>E, C,>D,B,,>C, A,,>B,,G,,>A,, | F,,4 F,,2 F,2 F,4 D,4 | A,,8 D,,8 |[M:3/2] z12 | %31
 z12 | z12 | z12 | z12 | z12 | C,6 B,,2 A,,4 | F,,4 C,8 | A,,4 B,,4 C,4 | D,6 C,2 B,,4 | %40
 G,,2 A,,2 B,,4 F,,4 | C,12 | F,,12 | z12 | z12 | z4 z4 D,4 | G,12 | C,12 | D,6 C,2 B,,4 | %49
 C,6 B,,2 A,,4 | E,,6 D,,2 C,,4 | G,,8 G,,4 |[M:6/2] C,,8 z4 z2 F,,2 B,,4 G,,4 | %53
[M:4/2] G,,2 C,4 A,,3 A,, D,4 B,,2- | B,,B,, _E,4 C,2 z8 | %55
[M:6/2] z2 _E,3 D, C,2 G,3 G, G,4 z2 F,3 E, D,2 |[M:4/2] E,2 F,4 E,2 F,8 | %57
 z2 A,,3 G,, F,,2 C,6 C,2 | F,,16 |] %59
V:3
 F,4 B,,4 A,,2 F,,2 G,,4 | F,,4 D,2 B,,2 C,4 C,2 C,2 | D,4 D,2 B,,2 C,8 | B,,3 C, D,2 B,,2 C,8 | %4
 F,,8 C,8- | C,4 G,,4 C,2 D,2 C,4 | F,,8 C,8 | G,,8 D,4 C,4 | C,4 =B,,4 C,8 | C,4 A,,2 F,,2 C,8 | %10
 G,,8 C,8 | D,8 G,,4 A,,2 G,,2 |[M:6/2] A,,4 A,,2 A,,2 =B,,3 C, D,2 B,,2 ^C,2 D,2 A,,4 | %13
[M:4/2] D,2 B,,C, D,2 E,2 F,2 F,,G,, A,,2 B,,2 | C,4 C,2 F,,2 C,8- | C,8 F,,8 | %16
 C,4 B,,2 A,,2 F,,4 F,,2 C,2 | F,,8 G,,2 D,2 C,4 | C,2 B,,2 A,,2 G,,2 F,,4 E,,4 | %19
 G,,4 G,,2 C,2- C,2 B,,2 _E,4 | D,8 C,4 B,,4 | C,6 B,,2 A,,2 A,,4 ^F,,2 | %22
[M:6/2] G,,8 C,4 G,,A,, B,,2 D,4 A,,4 |[M:4/2] A,3 G, F,2 E,2 D,2 C,2 B,,2 A,,2 | %24
 G,,4 G,,2 D,2 G,,4 E,,4 | G,,8 C,8 | G,,A,, B,,2 D,2 D,2 F,,G,, A,,2 C,2 C,2 | %27
 G,2 F,2 E,2 D,2 C,2 B,,2 A,,2 G,,2 | F,,4 F,,4 F,,2 F,2 D,4 | A,,8 D,,8 |[M:3/2] G,6 F,2 E,4 | %31
 C,4 G,8 | E,4 F,4 G,4 | A,6 G,2 F,4 | D,2 E,2 F,4 C,4 | G,8 C,4 | C,6 B,,2 A,,4 | F,,4 C,8 | %38
 A,,4 B,,4 C,4 | D,6 C,2 B,,4 | G,,2 A,,2 B,,4 F,,4 | C,12 | F,,12 | D,12 | G,6 F,2 E,4 | D,8 D,4 | %46
 G,,12 | C,12 | D,6 C,2 B,,4 | A,,6 G,,2 F,,4 | E,,6 D,,2 C,,4 | G,,8 G,,4 | %52
[M:6/2] C,,8 z2 C,2 F,2 F,,2 B,,4 G,,4 |[M:4/2] G,,2 C,4 A,,3 A,, D,4 B,,2- | %54
 B,,B,, _E,4 C,2 D,4 G,,4 |[M:6/2] C,2 _E,3 D, C,2 G,2 B,,3 A,, G,,2 D,3 C, B,,3 A,,/G,,/ | %56
[M:4/2] C,8 D,4 B,,4 | C,2 A,,3 G,, F,,2 C,8 | F,,16 |] %59

